32x32/apps/youtrack.svg

<svg height="32" width="32" xmlns="http://www.w3.org/2000/svg"><path d="m3.4 31c-.775 0-1.4-.625-1.4-1.4v-1c0 .775.625 1.4 1.4 1.4h25.2c.775 0 1.4-.625 1.4-1.4v1c0 .775-.625 1.4-1.4 1.4h-12.6z" opacity=".2"/><path d="m16 2h-12.6c-.776 0-1.4.624-1.4 1.4v12.6h14z" fill="#cf4f8c"/><path d="m16 2h12.6c.776 0 1.4.624 1.4 1.4v12.6h-14zm0 28h-12.6c-.776 0-1.4-.624-1.4-1.4v-12.6h14z" fill="#2086e7"/><path d="m16 30h12.6c.776 0 1.4-.624 1.4-1.4v-12.6h-14z" fill="#6655e4"/><path d="m3.4 2c-.775 0-1.4.625-1.4 1.4v1c0-.775.625-1.4 1.4-1.4h25.2c.775 0 1.4.625 1.4 1.4v-1c0-.775-.625-1.4-1.4-1.4z" fill="#f4f4f7" opacity=".2"/><path d="m6 6h20v20h-20z" fill="#17191e"/><g fill="none" stroke-linecap="round" stroke-width="2"><path d="m9 24h8" opacity=".2" stroke="#000"/><path d="m9 23h8" stroke="#f4f4f7"/><path d="m12 18v-4m3-4-3 4m-3-4 3 4" opacity=".2" stroke="#000"/><path d="m12 17v-4m3-4-3 4m-3-4 3 4" stroke="#f4f4f7"/><path d="m19 10h4m-2 8v-8" opacity=".2" stroke="#000"/><path d="m19 9h4m-2 8v-8" stroke="#f4f4f7"/></g></svg>

<svg height="32" width="32" xmlns="http://www.w3.org/2000/svg">
    <path d="M3.4 31c-.775 0-1.4-.625-1.4-1.4v-1c0 .775.625 1.4 1.4 1.4h25.2c.775 0 1.4-.625 1.4-1.4v1c0 .775-.625 1.4-1.4 1.4H16z" opacity=".2"/>
    <path d="M16 2H3.4C2.624 2 2 2.624 2 3.4V16h14z" fill="#cf4f8c"/>
    <path d="M16 2h12.6c.776 0 1.4.624 1.4 1.4V16H16zm0 28H3.4c-.776 0-1.4-.624-1.4-1.4V16h14z" fill="#2086e7"/>
    <path d="M16 30h12.6c.776 0 1.4-.624 1.4-1.4V16H16z" fill="#6655e4"/>
    <path d="M3.4 2C2.625 2 2 2.625 2 3.4v1C2 3.625 2.625 3 3.4 3h25.2c.775 0 1.4.625 1.4 1.4v-1c0-.775-.625-1.4-1.4-1.4z" fill="#f4f4f7" opacity=".2"/>
    <path d="M6 6h20v20H6z" fill="#17191e"/>
    <g fill="none" stroke-linecap="round" stroke-width="2">
        <path d="M9 24h8" opacity=".2" stroke="#000"/>
        <path d="M9 23h8" stroke="#f4f4f7"/>
        <path d="M12 18v-4m3-4-3 4m-3-4 3 4" opacity=".2" stroke="#000"/>
        <path d="M12 17v-4m3-4-3 4M9 9l3 4" stroke="#f4f4f7"/>
        <path d="M19 10h4m-2 8v-8" opacity=".2" stroke="#000"/>
        <path d="M19 9h4m-2 8V9" stroke="#f4f4f7"/>
    </g>
</svg>
